X: 55
T: Erik Isaks
O: Bergsj, Hlsingland
Z: Transcribed to abcby Jon Magnusson 080603
B: Jmfr http://www.smus.se/earkiv/fmk/browselarge.phplang=sw&katalogid=Hs19&bildnr=00008|SMUS - katalog Hs19 bild 8
R: Polska
M: 3/4
L: 1/16
K: G
G2AB B2AB (cB)AB|G2AB c2Bc (dc)Bc|d3d e2d2 f2d2|d3d g2d2 b2g2|
G2AB B2AB (cB)AB|G2AB c2Bc (dc)Bc|d3d e2d2 f2d2|(ba)fa g8:|
|:d2b2 (ba)gf e2d2|^c2a2 (af)ge f2d2|d2ef (gf)ed (cB)AG|(FG)AB (AG)FE (DC)B,A,|
G,2b2 (ba)gf e2d2|^c2a2 (af)ge f2d2|d2ef (gf)ed (cB)AG|(FG)AF G8:|
